X:41
T:The Girls Of Farranfore 
R:Reel
S:Connie Connel, Cork and Denis McMahon, Kerry (fiddles)
D:"The Pure Drop"
H:Apart from the first time, the first bar is 'BE~E2 GBdB'
M:4/4
Z:Bernie Stocks
K:D
~E3F GBdB | AD(3.D.D.D FAAd | BE~E2 G3B | dBAd BE~E2 | 
GBdg eBdB |  AD(3.D.D.D FAAd | BE~E2 G3B | dBAd BE~E2 || 
e3e efge | d3f afed | (3.B.c.d ef ~g3e | dBAd BEE2 | 
e3e efge | d3f afef | g2bg f2af | edef gfed ||
<end>
<start>
